X:1
T:Give Me a Passion for Souls
T:Give Me a Passion for Souls
T:Foss Luke Fellers
T:Herbert George Tovey, 1914
T:Public Domain Courtesy of the Cyber Hymnal™
C:Foss Luke Fellers
Z:Public Domain
Z:Courtesy of the Cyber Hymnal™
%%score ( 1 2 ) ( 3 4 )
L:1/8
Q:1/4=95
M:6/8
K:C
V:1 treble 
V:2 treble 
V:3 bass 
V:4 bass 
V:1
 [CE][CE][CE] [CE][C^D][CE] | [CF]2 [CF] [B,F]2 [DF] | [B,F][B,F][B,F] [DF]2 [DF] | [CE]6 | %4
w: 1.~Give me a pas- sion for|souls, dear Lord, A|pas- sion to save the|lost;|
w: 2.~Though there are dan- gers un-|told and stern Con-|front- ing me in the|way,|
w: 3.~How shall this pas- sion for|souls be mine? Lord,|make Thou the an- swer|clear;|
 [EG][EG][EG] [EG][^D^F][EG] | [FA]2 [FA] [FA]2 [GA] | [^FA][FA][FA] (cB)[FA] | [FB]6 || %8
w: O that Thy love were by|all a- dored, And|wel- comed at a- * ny|cost.|
w: Will- ing- ly still would I|go, nor turn, But|trust Thee for grace * each|day.|
w: Help me to throw out the|old life line To|those who are strug- * gling|near.|
"^Refrain" [Ec][Ec][Ec] [Ec]2 [Ec] | [Ec][EB][EA] [Fc] [FB]2 | [FB][FB][FB] [FB]2 [FA] | %11
w: |||
w: |||
w: |||
 [FA][FA][FG] [^DA] [EG]2 | [FA][FA][FA] [FA]2 [GA] | [^FA][FB][Fc] [Fd][Fc][FA] | %14
w: |||
w: |||
w: |||
 [EG][Gc][Gc] [Fc]!fermata![Fc][FB] | [Ec]6 |] %16
w: ||
w: ||
w: ||
V:2
 x6 | x6 | x6 | x6 | x6 | x6 | x3 ^F2 x | x6 || x6 | x6 | x6 | x6 | x6 | x6 | x6 | x6 |] %16
V:3
 [C,G,][C,G,][C,G,] [C,G,][C,^F,][C,G,] | [C,A,]2 [C,_A,] [D,G,]2 [B,,G,] | %2
w: ~ ~ ~ ~ ~ ~|~ ~ ~ ~|
 [G,,G,][G,,G,][G,,G,] (B,A,)[G,,G,] | [C,G,]6 | [C,C][C,C][C,C] [C,C][C,A,][C,G,] | %5
w: ~ ~ ~ ~ * ~|~|~ ~ ~ ~ ~ ~|
 (F,C)[F,C] [F,C]2 [E,^C] | [D,D][D,C][D,C] (A,B,)[D,C] | [G,D]6 || %8
w: ~ * ~ ~ ~|~ ~ ~ ~ * ~|~|
 [C,C][C,G,][C,G,] [C,G,]2 [C,G,] | [C,G,][C,G,][C,G,] [D,G,] [D,G,]2 | %10
w: Je- sus, I long, I|long to be win- ning|
 [G,D][G,D][G,D] [G,D]2 [G,D] | [G,D][G,B,][G,,G,] [C,^F,] [C,G,]2 | F,[F,C][F,C] [F,C]2 [E,^C] | %13
w: Men who are lost, and|con- stant- ly sin- ning;|O may this hour be|
 [D,C][D,B,][D,A,] [D,A,][D,A,][D,C] | [G,C][G,E][G,E] [G,D][G,D][G,D] | [C,C]6 |] %16
w: one of be- gin- ning The|stor- y of par- don to|tell.|
V:4
 x6 | x6 | x3 G,,2 x | x6 | x6 | F,2 x4 | x3 D,2 x | x6 || x6 | x6 | x6 | x6 | F, x5 | x6 | x6 | %15
 x6 |] %16

